X:1
T:G Major           Jeremiah Ingalls, 1805
T:John Leland, before 1801 76. 76. 76. 76.
T:Love to Jesus
T:Transcribed from Ingalls' Christian Harmony, 1805.
%%score [ 1 2 3 ]
L:1/8
Q:1/4=150
M:4/4
K:G
V:1 treble nm="Tr." snm="Tr."
V:2 treble-8 nm="T." snm="T."
V:3 bass nm="B." snm="B."
V:1
"^1. O   when   shall   I   see   Je – sus,   And dwell with him above,  And drink the flowing fountains   Of   ev –  er   –   las    –   ting    love? \n2. But  now    I      am   a    sol–dier,   My  Captain's  gone before,   He's   gi – ven  me  my  or –ders,  And  tells   me     not        to       fear:\n3. Through  grace I am determined  To   conquer  though  I  die,    And  then   a–way  to   Je  –sus,     On  wings  of    love       I'll         fly:" B4 | %1
 d2 d2 d2 g2 | d4 d2 B2 | d2 B2 G2 A2 | B6 c2 | d2 d2 d2 g2 | d4 d2 B2 | d2 de ^d2 B2 | B8 |: %9
 z4"^1. When  shall  I  be  de – li – vered,  From  this vain world of sin?  And  with  my  blessed     Je – sus   Drink  endless  pleasure  in.\n2. And    if    I   hold  out  faith–ful,   A  crown  of  life  he'll   give,  And   all      his   valiant    sol–diers  E – ter – nal  life  shall  have.\n3.  Fare–well   to   sin  and  sor – row,   I    bid    it    all    a  –  dieu,   And  you  my  friends, be faithful,  And on  your  way  pursue.\n" B4 | %10
 B3 d e2 d2 | d4 d2 e2 | d2 g2 f2 e2 | f6 d2 | B3 c e2 d2 | d4 d2 B2 | d2 B2 G2 A2 | B8 :| %18
V:2
"^4. And  if  you  meet with troubles   And    tri –als   on  the  way,    Then  cast  your cares on  Jesus,   And  don't  for – get       to     pray,\n5.  O     do   not  be  dis–cou–raged,   For  Je –sus  is  your friend,    And if you lack for knowledge,  He'll   not     re – fuse       to     lend," G4 | %1
 B2 B2 d2 d2 | B4 A2 GA | B2 G2 E2 F2 | G6 GA | B2 B2 B2 d2 | B4 A2 G2 | A2 A2 Bc ^d2 | e8 |: %9
 z4"^4. Gird  on  the  heav'n – ly  ar–mor  Of   faith, and hope and love,  And when your race is ended,  You'll reign with him above.\n5. Nei–ther will he upbraid you,  Though  of–ten  you  re–quest,  He'll  give  you  grace  to  conquer,  And  take  you  up  to  rest.\n" d4 | %10
 e3 f g2 fe | B4 B2 g2 | B2 B2 A2 G2 | A6 d2 | e3 f g2 fe | B4 A2 G2 | A2 G2 E2 F2 | G8 :| %18
V:3
 G,4 | G,2 G,2 G,2 G,2 | G,4 D,2 E,2 | G,2 B,,2 C,2 D,2 | [G,,G,]6 D,2 | G,2 G,2 G,2 G,2 | %6
 G,4 D,2 E,2 | D,2 D,2 B,,2 B,,2 | E,8 |: z4 G,4 | E,3 E, E,2 D,2 | G,4 G,2 G,2 | G,2 G,2 D,2 E,2 | %13
 D,6 D,2 | E,3 E, E,2 D,2 | G,4 D,2 E,2 | G,2 B,,2 C,2 D,2 | G,,8 :| %18

